icon/ir/underline-square-outline.svg

<svg stroke-width="1.5" viewBox="0 0 24 24" fill="none" xmlns="http://www.w3.org/2000/svg" height="1em" width="1em">
  <path d="M3 20.4V3.6C3 3.26863 3.26863 3 3.6 3H20.4C20.7314 3 21 3.26863 21 3.6V20.4C21 20.7314 20.7314 21 20.4 21H3.6C3.26863 21 3 20.7314 3 20.4Z" stroke="currentColor" stroke-width="1.5"/>
  <path d="M16 6V10C16 12.2091 14.2091 14 12 14V14C9.79086 14 8 12.2091 8 10V6" stroke="currentColor" stroke-linecap="round" stroke-linejoin="round"/>
  <path d="M6 18L18 18" stroke="currentColor" stroke-linecap="round" stroke-linejoin="round"/>
</svg>

<svg width="24" height="24" stroke-width="1.5" fill="none" xmlns="http://www.w3.org/2000/svg"><path d="M3 20.4V3.6a.6.6 0 0 1 .6-.6h16.8a.6.6 0 0 1 .6.6v16.8a.6.6 0 0 1-.6.6H3.6a.6.6 0 0 1-.6-.6Z" stroke="currentColor"/><path d="M16 6v4a4 4 0 0 1-4 4v0a4 4 0 0 1-4-4V6M6 18h12" stroke="currentColor" stroke-linecap="round" stroke-linejoin="round"/></svg>
